X: 28129
T: Mrs Crehan's
R: reel
M: 4/4
K: Gmajor
G2dG eGdG|G2dG AdcA|G2 dG eGdG|(3EFG AB cedB|
G2dG egdB|G2dB AdcA|G2dG eGdG|FGAB cege||
d2(3Bcd gdBd|gdBd eA A2|d2(3Bcd gdBd|ecAc BG G2|
d2(3Bcd G3E|DEGB AE E2|GABc dedc|(3Bcd Ac BGGF||

